X: 9855
T: Derik's Bothy Antics
R: reel
M: 4/4
K: Gmajor
|:~B3d AGGG|dege edgd|B2zd AGGG|cd (3BAG ADGA|B2zd AGGG|
degz fedB|1 c2 (3ccc (3deg ed|(3BAG AD GDEG:|2 z4 Bded|AGED GA (3Bcd:|
c4 dgfd|B2dB ed (3BAG|A2 c2 B2 d2|(3BAG ED GA (3Bcd|
c2 (3ccc dgfd|B2dB ed (3BAG|Bc (3ccc dedB|AGED GA(3Bcd|
c4 dgfd|B2B2 de(3BAG|A2z2 AGAc|dBdz AGAB|
c2 (3ccc dgfd|B2z2 BABd|B2dz AGED|EFGE FGAc||

